svg/javascript.svg

<svg viewBox="0 0 20 20" xmlns="http://www.w3.org/2000/svg">
<rect width="100%" height="100%" fill="#F6DE1E"/>
<path d="M9.81752 13.2758L11.6447 12.2074C11.7364 12.3528 11.8364 12.4928 11.9442 12.6268C12.2279 13.0135 12.6219 13.3054 13.0746 13.464C13.5272 13.6226 14.0173 13.6405 14.4803 13.5154C14.6427 13.4775 14.7978 13.4134 14.9396 13.3257C15.0846 13.2473 15.2079 13.1343 15.2986 12.9968C15.3892 12.8592 15.4444 12.7013 15.4593 12.5372C15.4741 12.3731 15.4481 12.2078 15.3835 12.0562C15.319 11.9046 15.2179 11.7713 15.0894 11.6683C14.9535 11.5416 14.7985 11.4371 14.6301 11.3587C14.1907 11.1391 13.7315 10.9394 13.2822 10.7397C12.6436 10.4966 12.0447 10.1601 11.5049 9.74124C11.133 9.40822 10.8477 8.98966 10.6737 8.52171C10.4998 8.05376 10.4424 7.5505 10.5065 7.05539C10.5548 6.3807 10.8362 5.74381 11.3025 5.25382C11.7688 4.76382 12.391 4.45122 13.0625 4.36955C13.6856 4.25973 14.3247 4.28012 14.9396 4.42946C15.3959 4.54452 15.8221 4.75659 16.1891 5.05122C16.5561 5.34586 16.8553 5.71613 17.0663 6.13682L15.2891 7.22513C15.1992 7.09533 15.1193 6.96553 15.0295 6.84572C14.8594 6.60603 14.6195 6.42467 14.3425 6.32639C14.0655 6.22811 13.765 6.21769 13.4818 6.29657C13.3128 6.33745 13.1573 6.42178 13.0309 6.54122C12.9045 6.66065 12.8114 6.81104 12.761 6.97749C12.7105 7.14394 12.7045 7.32069 12.7433 7.49021C12.7822 7.65974 12.8647 7.81617 12.9826 7.94402C13.1498 8.12085 13.3499 8.26331 13.5717 8.36337C14.061 8.61298 14.5702 8.81268 15.0694 9.04232C15.6152 9.27894 16.1286 9.58427 16.597 9.95091C17.0075 10.2711 17.3274 10.6927 17.5252 11.1742C17.7231 11.6557 17.792 12.1804 17.7253 12.6967C17.6998 13.3291 17.467 13.9356 17.0629 14.4228C16.6587 14.9099 16.1056 15.2506 15.4887 15.3925C14.2474 15.7651 12.9128 15.6728 11.7346 15.1329C10.8937 14.7634 10.2135 14.1044 9.81752 13.2758ZM1.75 13.5254L3.58716 12.4071L3.9466 12.9363C4.10704 13.1976 4.35176 13.3963 4.64037 13.4998C4.92899 13.6033 5.24425 13.6052 5.53414 13.5054C5.67198 13.4791 5.80061 13.4175 5.9074 13.3264C6.01418 13.2354 6.09545 13.1182 6.1432 12.9862C6.20173 12.8037 6.24514 12.6167 6.273 12.4271C6.28299 12.2608 6.28299 12.0941 6.273 11.9279V4.40949H8.52951C8.53396 4.47931 8.53396 4.54934 8.52951 4.61916V12.1375C8.5401 12.575 8.48969 13.0119 8.37974 13.4355C8.26201 13.9195 8.01345 14.3618 7.66126 14.7139C7.30906 15.0661 6.8668 15.3147 6.38283 15.4324C5.35267 15.732 4.24743 15.6322 3.28762 15.1529C2.60433 14.8018 2.06173 14.2275 1.75 13.5254Z" fill="black"/>
</svg>

<svg xmlns="http://www.w3.org/2000/svg" viewBox="0 0 20 20">
  <rect width="100%" height="100%" fill="#F6DE1E"/>
  <path d="m9.82 13.28 1.82-1.07.3.42a2.38 2.38 0 0 0 3 .7 1 1 0 0 0 .15-1.66c-.14-.13-.3-.23-.46-.31-.44-.22-.9-.42-1.35-.62a6.9 6.9 0 0 1-1.78-1 3.08 3.08 0 0 1-1-2.68 2.92 2.92 0 0 1 2.56-2.69 4.58 4.58 0 0 1 1.88.06 3.28 3.28 0 0 1 2.13 1.7l-1.78 1.1-.26-.38a1.43 1.43 0 0 0-1.55-.55 1 1 0 0 0-.5 1.64c.17.18.37.32.6.42.48.25.99.45 1.49.68.55.24 1.06.54 1.53.91a3 3 0 0 1 1.13 2.75 2.89 2.89 0 0 1-2.24 2.7 5.33 5.33 0 0 1-3.76-.27 3.83 3.83 0 0 1-1.91-1.85Zm-8.07.25 1.84-1.12.36.53a1.35 1.35 0 0 0 1.58.57.8.8 0 0 0 .61-.52c.06-.19.1-.37.13-.56V4.4h2.26v7.73c.01.43-.04.87-.15 1.3a2.72 2.72 0 0 1-2 2c-1.03.3-2.13.2-3.1-.29a3.37 3.37 0 0 1-1.53-1.62Z"/>
</svg>
